X:1
T:Nemo ascendit
T:Nemo ascendit
T:Seth Calvisius
T:Source : Biciniorum---Leipzig---J.Apelio---1612. Editor : André Vierendeels (22/04/15).
C:Seth Calvisius
%%score [ 1 2 ]
L:1/8
Q:1/4=84
M:4/2
K:F
V:1 treble nm="1.Vox" snm="1.V"
V:2 treble nm="2.Vox" snm="2.V"
V:1
 z4 d4 A2 B2 c2 d2 | e2 f2 e4 d8 | d4 A4 c4 G2 A2 | B2 c2 d2 e2 f2 g4 ^f2 | g8 g4 d4 | %5
w: Ne- mo a- scen- *|dit in coe- lum,|ne- mo, ne- mo a-|scen- * dit in coe- * *|lum, ne- mo,|
 f4 c2 d2 e2 f2 g2 fe | d2 e2 f2 ed c2 d2 e2 f2 | e4 d2 B4 c2 d4 | z2 f4 g2 a2 f4 g2 | %9
w: ne- mo a- scen- * dit in _|coe- * * * * * * * *|* lum, ni- si qui,|ni- si qui, ni- si|
 a2 f2 g3 f edcB A4 | A2 a2 agfe dcde f2 d2 | e2 f2 e4 d4 z2 f2 | g2 fe dcdB c2 B2 A4 | %13
w: qui de- scen- * * * * * *|dit, de- scen- * * * * * * * * *|dit de coe- lo, de|coe- * * * * * * * * *|
 GABc d4 f3 f d2 f2- | f2 e2 d4 f3 f d2 f2- | f2 e2 d4 c2 B2 A2 A2 | G2 d2 g4 fe d4 ^c2 | %17
w: lo: _ _ _ _ fi- li- us ho-|* mi- nis, fi- li- us ho-|* mi- nis qui in coe- lo|est,- in coe- * * * lo-|
 d4 G2 A2 B2 c2 d4 | A2 B2 c2 d2 e2 f2 e4 | d8 G2 A2 B2 c2 | d2 e2 f2 g2 a2 gf e2 f2 | %21
w: est, qui in coe- lo est,|qui in- coe- * * * lo|est, qui in coe- *||
 g2 fe d2 e2 f2 d2 e2 f2 | g2 e2 f2 g2 a2 g4 f2 |"^#" g16 |] %24
w: |* * * * * * lo|est.|
V:2
 G4 D2 E2 F2 G2 A2 B2 |"^-natural" ^c2 d4 c2 d4 G4 | D4 F4 C2 D2 E2 F2 | G2 A2 B2 c2 d2 B2 A4 | %4
w: Ne- mo a- scen- * dit in|coe- * * lum, ne-|mo, ne- mo a- scen- *|* * * * dit in coe-|
 G4 c4 G4 B4 | F2 G2 A2 B2 c2 d2 c4 | B4 F2 G2 A2 B2 c2 d2- | d2 ^c2 d4 G2 A2 B2 G2- | %8
w: lum, ne- mo, ne-|mo a- scen- * dit in coe-|lum, ne- mo a- scen- dit in|_ coe- lum, ni- si qui, ni-|
 G2 A2 B4 A2 dc BA G2 | F4 c2 c3 BAG F4 | D4 d2 dc BA G2 F2 B2 | %11
w: * si qui de- scen- * * * *|dit, de- scen- * * * *|dit, de- scen- * * * * dit de|
"^-natural""^-natural" ^c2 d4 c2 d2 B2 c2 BA | G2 A2 BABG A2 G4 ^F2 | G4 B3 B A2 B4 A2 | %14
w: coe- * * lo, de coe- * *||lo: fi- li- us ho- mi-|
 G4 B3 B A2 B4 A2 | G2 c4 B2 A2 G4 ^F2 | G4 _e2 d2 c2 B2 A4 | G2 A2 B2 c2 d4 D2 E2 | %18
w: nis, fi- li- us ho- mi-|nis, qui in coe- * lo|est, qui in coe- lo- est,|qui in coe- lo est, qui in|
"^-natural" F2 G2 A2 B2 ^c2 d4 c2 |"^-natural" d4 G2 A2 B2 c2 d4 | B2 c2 d2 cB A2 B2 c2 BA | %21
w: coe- * * * * * lo|est, qui in coe- lo est,|qui in coe- * * * * * * *|
 G2 A2 B2 AG A2 B2 c2 A2 | B2 c2 d2 B2 c3 B A2 A2 | G16 |] %24
w: |* * * * * * * lo|est.|

